X: 11
T: The New Custom House
R: reel
M: 4/4
L: 1/8
K: Dmix
ADdD (3EFG AG|cAGE CDEG|ADdD (3EFG AB|cdec dcAG|
AD (3FED (3EFG AG|cAGE CDEG|ADdD (3EFG Ad|cAGE ADD2:|
|:Ad~d2 Adfd|ec~c2 Ggec|Ad~d2 Adfa|gfeg fd~d2|
Ad (3fed adfd|eccB cd (3efg|afge fd~d2|eaag ~e2dc:|


Tune 175	Setting 12820

